app/img/icon/branding.svg

<?xml version="1.0" encoding="utf-8"?>
<!-- Generator: Adobe Illustrator 16.0.4, SVG Export Plug-In . SVG Version: 6.00 Build 0)  -->
<!DOCTYPE svg PUBLIC "-//W3C//DTD SVG 1.1//EN" "http://www.w3.org/Graphics/SVG/1.1/DTD/svg11.dtd">
<svg version="1.1" id="Layer_1" xmlns="http://www.w3.org/2000/svg" xmlns:xlink="http://www.w3.org/1999/xlink" x="0px" y="0px"
	 width="56.334px" height="55px" viewBox="0 0 56.334 55" enable-background="new 0 0 56.334 55" xml:space="preserve">
<path fill="#0e4afb" d="M43.412,4.876h-11.22c-0.563,0-1.021,0.455-1.021,1.02v42.087c-1.362,0.117-2.726,0.131-4.078,0.04V25.012
	c0-0.195-0.068-0.364-0.162-0.518l0.013-0.007l-7.569-12.33c-0.186-0.304-0.514-0.486-0.869-0.486c-0.357,0-0.684,0.183-0.871,0.486
	l-7.582,12.33l0.004,0.002c-0.093,0.153-0.163,0.325-0.163,0.522v17.421c0,0.323,0.156,0.616,0.398,0.807
	c1.283,1.112,2.678,2.109,4.133,2.953c3.48,2.051,7.475,3.359,11.555,3.786c0.952,0.099,1.912,0.146,2.874,0.146
	c1.156,0,2.313-0.069,3.464-0.206c4.098-0.477,7.99-1.807,11.565-3.957c0.182-0.096,0.339-0.248,0.438-0.437
	c0.105-0.193,0.139-0.412,0.109-0.617V5.896C44.435,5.331,43.978,4.876,43.412,4.876z M15.963,26.031h4.785v20.742
	c-1.667-0.539-3.271-1.233-4.785-2.082V26.031z M12.755,23.992l2.873-4.674c0.911,0.364,1.891,0.555,2.879,0.555
	c1.01,0,1.988-0.188,2.876-0.552l2.86,4.668H12.755V23.992z M18.507,14.638l1.768,2.884c-1.11,0.357-2.365,0.359-3.532-0.014
	L18.507,14.638z M11.937,26.031h1.988v17.418c-0.684-0.468-1.352-0.961-1.988-1.492V26.031z M25.053,47.806
	c-0.761-0.116-1.516-0.27-2.265-0.448V26.031h2.265V47.806z M42.394,44.472c-2.871,1.653-5.951,2.749-9.183,3.264v-20.21h4.592
	v-2.04h-4.592v-2.004h2.853v-2.04h-2.853v-1.992h2.807v-2.041h-2.807v-1.976h4.592v-2.039h-4.592v-1.785h2.743V9.567h-2.743V6.918
	h9.183V44.472L42.394,44.472z"/>
</svg>

<svg id="Layer_1" data-name="Layer 1" xmlns="http://www.w3.org/2000/svg" viewBox="0 0 34.55 45.25">
    <defs>
        <style>.cls-1{fill:#0e4afb;}</style>
    </defs>
    <title>branding</title>
    <path class="cls-1"
          d="M43.41,4.88H32.19a1,1,0,0,0-1,1V48a26.71,26.71,0,0,1-4.08,0V25a1,1,0,0,0-.16-0.52h0L19.37,12.16a1,1,0,0,0-1.74,0L10.05,24.49h0a1,1,0,0,0-.16.52V42.43a1,1,0,0,0,.4.81,27.1,27.1,0,0,0,4.13,3A28.81,28.81,0,0,0,26,50a27.8,27.8,0,0,0,2.87.15,29.31,29.31,0,0,0,3.46-.21,28.75,28.75,0,0,0,11.56-4,1,1,0,0,0,.44-0.44,1,1,0,0,0,.11-0.62V5.9A1,1,0,0,0,43.41,4.88ZM16,26h4.79V46.77A26.35,26.35,0,0,1,16,44.69V26Zm-3.21-2,2.87-4.67a7.77,7.77,0,0,0,2.88.56,7.58,7.58,0,0,0,2.88-.55L24.24,24H12.76Zm5.75-9.35,1.77,2.88a5.83,5.83,0,0,1-3.53,0ZM11.94,26h2V43.45c-0.68-.47-1.35-1-2-1.49V26ZM25.05,47.81c-0.76-.12-1.52-0.27-2.26-0.45V26h2.26V47.81Zm17.34-3.33a26.76,26.76,0,0,1-9.18,3.26V27.53H37.8v-2H33.21v-2h2.85v-2H33.21v-2H36v-2H33.21v-2H37.8v-2H33.21V11.61H36v-2H33.21V6.92h9.18V44.47h0Z"
          transform="translate(-9.89 -4.88)"/>
</svg>
